svgs/barinsta.svg

<svg viewBox="0 0 192 192" xml:space="preserve" style="fill-rule:evenodd;clip-rule:evenodd;stroke-linejoin:round;stroke-miterlimit:2" xmlns="http://www.w3.org/2000/svg"><path d="M915.043 58.845C903.996 67.469 896.887 80.911 896.887 96c0 15.089 7.109 28.531 18.156 37.155V170c0 3.311 2.689 6 6 6 3.312 0 6-2.689 6-6v-30.036A46.764 46.764 0 0 0 938 142.733V170c0 3.311 2.689 6 6 6s6-2.689 6-6v-27.267a46.767 46.767 0 0 0 10.97-2.774V170c0 3.311 2.688 6 6 6 3.311 0 6-2.689 6-6v-30.65l10.591 9.966a5.995 5.995 0 0 0 8.583-.369l12.846-14.355a5.982 5.982 0 0 0 1.51-4.349 5.967 5.967 0 0 0-2.01-4.143l-16.108-14.267A46.993 46.993 0 0 0 991.113 96c0-15.081-7.102-28.517-18.143-37.144V22c0-3.311-2.689-6-6-6-3.312 0-6 2.689-6 6v30.041A46.816 46.816 0 0 0 950 49.267V22c0-3.311-2.689-6-6-6s-6 2.689-6 6v27.267a46.764 46.764 0 0 0-10.957 2.769V22c0-3.311-2.688-6-6-6-3.311 0-6 2.689-6 6v36.845Zm67.67 63.997a47.327 47.327 0 0 1-4.216 5.231l8.806 8.287 4.719-5.274-9.309-8.244ZM944 60.887c19.379 0 35.113 15.734 35.113 35.113 0 19.379-15.734 35.113-35.113 35.113-19.379 0-35.113-15.734-35.113-35.113 0-19.379 15.734-35.113 35.113-35.113Z" style="fill-rule:evenodd;clip-rule:evenodd;stroke-linejoin:round;stroke-miterlimit:2" transform="translate(-848)"/></svg>

<?xml version="1.0" encoding="UTF-8" standalone="no"?>
<svg
   width="100%"
   height="100%"
   viewBox="0 0 192 192"
   version="1.1"
   xml:space="preserve"
   style="fill-rule:evenodd;clip-rule:evenodd;stroke-linejoin:round;stroke-miterlimit:2;"
   id="svg484"
   sodipodi:docname="barinsta.svg"
   inkscape:version="1.2.1 (9c6d41e410, 2022-07-14)"
   xmlns:inkscape="http://www.inkscape.org/namespaces/inkscape"
   xmlns:sodipodi="http://sodipodi.sourceforge.net/DTD/sodipodi-0.dtd"
   xmlns="http://www.w3.org/2000/svg"
   xmlns:svg="http://www.w3.org/2000/svg"><defs
   id="defs488" /><sodipodi:namedview
   id="namedview486"
   pagecolor="#ffffff"
   bordercolor="#000000"
   borderopacity="0.25"
   inkscape:showpageshadow="2"
   inkscape:pageopacity="0.0"
   inkscape:pagecheckerboard="0"
   inkscape:deskcolor="#d1d1d1"
   showgrid="false"
   inkscape:zoom="5.3489583"
   inkscape:cx="96.093476"
   inkscape:cy="95.906524"
   inkscape:window-width="1274"
   inkscape:window-height="1303"
   inkscape:window-x="1282"
   inkscape:window-y="36"
   inkscape:window-maximized="0"
   inkscape:current-layer="svg484" />
    <path
   d="M915.043,58.845C903.996,67.469 896.887,80.911 896.887,96C896.887,111.089 903.996,124.531 915.043,133.155L915.043,170C915.043,173.311 917.732,176 921.043,176C924.355,176 927.043,173.311 927.043,170L927.043,139.964C930.517,141.306 934.188,142.248 938,142.733L938,170C938,173.311 940.689,176 944,176C947.311,176 950,173.311 950,170L950,142.733C953.817,142.247 957.492,141.304 960.97,139.959L960.97,170C960.97,173.311 963.658,176 966.97,176C970.281,176 972.97,173.311 972.97,170L972.97,139.35L983.561,149.316C984.739,150.425 986.314,151.011 987.93,150.941C989.546,150.872 991.066,150.153 992.144,148.947L1004.99,134.592C1006.05,133.402 1006.6,131.837 1006.5,130.243C1006.41,128.65 1005.69,127.158 1004.49,126.1L988.382,111.833C990.149,106.885 991.113,101.554 991.113,96C991.113,80.919 984.011,67.483 972.97,58.856L972.97,22C972.97,18.689 970.281,16 966.97,16C963.658,16 960.97,18.689 960.97,22L960.97,52.041C957.492,50.697 953.817,49.753 950,49.267L950,22C950,18.689 947.311,16 944,16C940.689,16 938,18.689 938,22L938,49.267C934.188,49.752 930.517,50.694 927.043,52.036L927.043,22C927.043,18.689 924.355,16 921.043,16C917.732,16 915.043,18.689 915.043,22L915.043,58.845ZM982.713,122.842C981.431,124.687 980.021,126.435 978.497,128.073L987.303,136.36C987.303,136.36 992.022,131.086 992.022,131.086L982.713,122.842ZM944,60.887C963.379,60.887 979.113,76.621 979.113,96C979.113,115.379 963.379,131.113 944,131.113C924.621,131.113 908.887,115.379 908.887,96C908.887,76.621 924.621,60.887 944,60.887Z"
   id="path478"
   style="fill-rule:evenodd;clip-rule:evenodd;stroke-linejoin:round;stroke-miterlimit:2"
   transform="translate(-848)"
   inkscape:label="barinsta" />
</svg>
